X:2
T:The Cup of Tea
R:reel
M:4/4
L:1/8
K:D
BAGF GE (3EDE|GEBE GE (3EDE|BAGF GE (3EDE|FDAD FA A2|
BAGF GE (3EDE|GEBE GE (3EDE|BAGF GABc|dBAG FD D2:|
d2 eg fdec|d2 eg fB B2|d2 eg fdec|dBAG FD D2|
d2 eg fdec|dfaf g2 fg|afge fdec|dBAG FA D2:|
FAdA FABA|FAdA FE~E2|~F3A BABc|dBAG FDD2|
FAdA FABA|FAde fe~e2|fedc dBAF|1 GBAG FDD2:|2 GBAG FDD=c|]
</abc>
